X: 51
T: Killarney Boys of Pleasure
R: reel
Z: 2012 John Chambers <jc@trillian.mit.edu>
B: "100 Essential Irish Session Tunes" 1995 Dave Mallinson, ed.
N: The first part ended with a "D" chord, which is probably a typo.
M: 4/4
L: 1/8
K: Edor
D |\
"Em"E2FD E2FA | "Bm"BFAF DEFA | "Em"B2Bd "C"e2ed |\
[1,3 "Bm"BdAF DEF :|[2,4 "Bm"BdAF "Em"FE E :|
|: e |\
"Em"Be~e2 Befe | "D"BdAF DEFA |\
[1,3 "Bm"f2fe f2fe | "D"dBAF DEFA :|\
[2,4 "Bm"f2fe defe | "D"dBAF "Em"E3 :|

%%sep 2 1 500
%%sep 1 1 500

